packages/nodes-base/nodes/Dropcontact/dropcontact.svg

<svg viewBox="0 0 50 50" fill="none" xmlns="http://www.w3.org/2000/svg">
<path fill-rule="evenodd" clip-rule="evenodd" d="M29.5692 16.219C28.1469 15.5371 26.5535 15.1552 24.8709 15.1552C18.8615 15.1552 13.9899 20.0268 13.9899 26.0362C13.9899 32.0456 18.8615 36.9172 24.8709 36.9172C28.9621 36.9172 32.526 34.6592 34.3843 31.3215L31.7614 29.8643C30.4154 32.2818 27.8341 33.9172 24.8709 33.9172C20.5183 33.9172 16.9899 30.3888 16.9899 26.0362C16.9899 21.6836 20.5183 18.1552 24.8709 18.1552C26.0896 18.1552 27.2437 18.4318 28.2738 18.9257L29.5692 16.219ZM34.7779 1.98444V27.7461H31.669V0.899363C29.5459 0.313171 27.3095 0 25 0C11.1929 0 0 11.1929 0 25C0 38.8071 11.1929 50 25 50C38.8071 50 50 38.8071 50 25C50 14.6626 43.7259 5.7907 34.7779 1.98444Z" fill="#0ABA9F"/>
</svg>

<svg xmlns="http://www.w3.org/2000/svg" fill="none" viewBox="0 0 50 50"><path fill="#0ABA9F" fill-rule="evenodd" d="M29.57 16.219a10.8 10.8 0 0 0-4.7-1.064c-6.009 0-10.88 4.872-10.88 10.881s4.871 10.881 10.88 10.881c4.092 0 7.656-2.258 9.514-5.596l-2.623-1.457a7.88 7.88 0 1 1-3.488-10.939zm5.208-14.235v25.762h-3.109V.9C29.546.313 27.309 0 25 0 11.193 0 0 11.193 0 25s11.193 25 25 25 25-11.193 25-25c0-10.337-6.274-19.21-15.222-23.016" clip-rule="evenodd"/></svg>
